src/WeatherTwentyOne/Resources/Images/fluent_weather_haze_20_filled.svg

<svg width="41" height="40" viewBox="0 0 41 40" fill="none" xmlns="http://www.w3.org/2000/svg">
<path d="M29.495 20.032C29.502 17.7732 28.6422 15.5951 27.0877 13.9336C25.5332 12.2721 23.3986 11.2497 21.1111 11.071C18.8237 10.8922 16.552 11.5704 14.7507 12.9698C12.9494 14.3691 11.7513 16.3864 11.3962 18.618C12.3308 18.544 13.2654 18.568 14.194 18.682C16.9388 19.022 19.4846 20.132 21.8516 21.49C23.2941 22.32 25.1187 22.556 27.0366 22.296C27.8473 22.184 28.6214 21.992 29.3284 21.75C29.4381 21.194 29.495 20.618 29.495 20.03V20.032Z" fill="url(#paint0_linear)"/>
<path d="M10.3132 8.76393L10.173 8.64793C9.96446 8.50531 9.70917 8.44477 9.45749 8.47825C9.20582 8.51172 8.976 8.63677 8.81335 8.82876C8.65069 9.02075 8.56698 9.26575 8.57872 9.51548C8.59047 9.76521 8.69681 10.0015 8.87679 10.1779L10.62 11.8939L10.7622 12.0099C10.9708 12.1525 11.2261 12.2131 11.4778 12.1796C11.7295 12.1461 11.9593 12.0211 12.1219 11.8291C12.2846 11.6371 12.3683 11.3921 12.3566 11.1424C12.3448 10.8926 12.2385 10.6563 12.0585 10.4799L10.3132 8.76393Z" fill="url(#paint1_linear)"/>
<path d="M31.978 10.04C32.1229 9.83463 32.1844 9.58334 32.1504 9.33559C32.1164 9.08785 31.9893 8.86163 31.7943 8.70151C31.5992 8.54139 31.3504 8.45899 31.0967 8.47055C30.843 8.48211 30.6029 8.58679 30.4237 8.76396L28.6784 10.48L28.5606 10.62C28.418 10.8254 28.3584 11.0758 28.3933 11.3222C28.4282 11.5686 28.5552 11.7933 28.7494 11.9525C28.9436 12.1117 29.1911 12.1939 29.4436 12.1831C29.6961 12.1723 29.9354 12.0692 30.1149 11.894L31.8601 10.178L31.978 10.038V10.04Z" fill="url(#paint2_linear)"/>
<path d="M21.3741 4.86994C21.3289 4.62404 21.1918 4.40373 20.9898 4.25238C20.7878 4.10103 20.5355 4.02961 20.2827 4.05219C20.0299 4.07477 19.7948 4.18971 19.6238 4.37437C19.4528 4.55904 19.3582 4.80005 19.3586 5.04994V7.47594L19.3749 7.65594C19.4201 7.90183 19.5572 8.12215 19.7592 8.2735C19.9612 8.42485 20.2135 8.49627 20.4663 8.47369C20.7191 8.45111 20.9542 8.33617 21.1252 8.15151C21.2963 7.96684 21.3909 7.72583 21.3904 7.47594V5.04794L21.3741 4.86794V4.86994Z" fill="url(#paint3_linear)"/>
<path d="M7.59883 23.8779C9.74436 22.7259 11.7355 22.4099 13.688 22.6499C15.6669 22.8959 17.6702 23.7199 19.8035 24.9459C22.2477 26.3479 25.0536 26.6039 27.5932 26.2579C30.1289 25.9119 32.4898 24.9559 34.1151 23.8139C34.3345 23.6595 34.4825 23.4257 34.5267 23.1639C34.5709 22.9021 34.5076 22.6337 34.3508 22.4179C34.194 22.202 33.9565 22.0562 33.6906 22.0127C33.4246 21.9692 33.152 22.0315 32.9327 22.1859C31.5958 23.1259 29.5478 23.9719 27.3149 24.2759C25.0861 24.5799 22.7719 24.3359 20.8275 23.2179C18.5764 21.9259 16.3028 20.9579 13.9399 20.6659C11.5526 20.3719 9.13483 20.7739 6.62563 22.1219C6.5085 22.1848 6.4051 22.2698 6.32134 22.372C6.23758 22.4742 6.17509 22.5917 6.13745 22.7177C6.09982 22.8437 6.08776 22.9758 6.10197 23.1064C6.11619 23.237 6.15639 23.3636 6.22029 23.4789C6.34935 23.7117 6.56709 23.8846 6.82562 23.9594C6.95362 23.9965 7.08779 24.0083 7.22046 23.9943C7.35313 23.9803 7.4817 23.9408 7.59883 23.8779V23.8779Z" fill="url(#paint4_linear)"/>
<path d="M13.688 26.6499C11.7355 26.4099 9.74439 26.7259 7.59887 27.8779C7.48174 27.9409 7.35314 27.9806 7.22042 27.9947C7.0877 28.0088 6.95346 27.9971 6.82536 27.9601C6.56664 27.8855 6.34864 27.7127 6.21932 27.4799C6.15528 27.3646 6.11494 27.238 6.10061 27.1073C6.08627 26.9767 6.09821 26.8445 6.13576 26.7184C6.21158 26.4638 6.38708 26.2492 6.62363 26.1219C9.13487 24.7739 11.5526 24.3719 13.942 24.6659C16.3029 24.9579 18.5764 25.9259 20.8296 27.2179C22.7719 28.3339 25.0861 28.5799 27.3149 28.2779C29.5458 27.9719 31.5958 27.1279 32.9327 26.1859C33.152 26.0315 33.4246 25.9692 33.6906 26.0127C33.9566 26.0562 34.1941 26.202 34.3509 26.4179C34.5077 26.6337 34.5709 26.9021 34.5267 27.1639C34.4825 27.4257 34.3345 27.6595 34.1152 27.8139C32.4898 28.9539 30.1269 29.9119 27.5933 30.2579C25.0536 30.6039 22.2478 30.3479 19.8036 28.9459C17.6702 27.7199 15.6669 26.8959 13.688 26.6499Z" fill="url(#paint5_linear)"/>
<path d="M7.59883 31.878C9.74436 30.726 11.7355 30.41 13.688 30.65C15.6669 30.896 17.6702 31.72 19.8035 32.946C22.2477 34.348 25.0536 34.604 27.5932 34.258C30.1289 33.912 32.4898 32.956 34.1152 31.814C34.3345 31.6596 34.4825 31.4258 34.5267 31.164C34.5709 30.9022 34.5076 30.6339 34.3508 30.418C34.194 30.2021 33.9565 30.0564 33.6906 30.0129C33.4246 29.9694 33.152 30.0316 32.9327 30.186C31.5958 31.126 29.5478 31.972 27.3149 32.276C25.0861 32.58 22.7719 32.336 20.8275 31.218C18.5764 29.926 16.3028 28.958 13.9399 28.666C11.5526 28.372 9.13483 28.774 6.62563 30.122C6.38907 30.249 6.21347 30.4634 6.13746 30.7178C6.06144 30.9723 6.09124 31.2461 6.22029 31.479C6.34935 31.7118 6.56709 31.8847 6.82562 31.9595C7.08414 32.0344 7.36228 32.005 7.59883 31.878V31.878Z" fill="url(#paint6_linear)"/>
<defs>
<linearGradient id="paint0_linear" x1="14.4869" y1="13.0955" x2="20.5604" y2="22.1714" gradientUnits="userSpaceOnUse">
<stop offset="0.10243" stop-color="#28C2D1"/>
<stop offset="0.925347" stop-color="#4931DE"/>
</linearGradient>
<linearGradient id="paint1_linear" x1="9.22313" y1="9.14168" x2="11.3729" y2="11.1898" gradientUnits="userSpaceOnUse">
<stop offset="0.10243" stop-color="#28C2D1"/>
<stop offset="0.925347" stop-color="#4931DE"/>
</linearGradient>
<linearGradient id="paint2_linear" x1="29.0283" y1="9.14105" x2="31.1754" y2="11.187" gradientUnits="userSpaceOnUse">
<stop offset="0.10243" stop-color="#28C2D1"/>
<stop offset="0.925347" stop-color="#4931DE"/>
</linearGradient>
<linearGradient id="paint3_linear" x1="19.7056" y1="4.84896" x2="21.566" y2="5.64885" gradientUnits="userSpaceOnUse">
<stop offset="0.10243" stop-color="#28C2D1"/>
<stop offset="0.925347" stop-color="#4931DE"/>
</linearGradient>
<linearGradient id="paint4_linear" x1="10.9534" y1="21.6274" x2="12.3573" y2="28.058" gradientUnits="userSpaceOnUse">
<stop offset="0.10243" stop-color="#28C2D1"/>
<stop offset="0.925347" stop-color="#4931DE"/>
</linearGradient>
<linearGradient id="paint5_linear" x1="10.9522" y1="25.6274" x2="12.3561" y2="32.0581" gradientUnits="userSpaceOnUse">
<stop offset="0.10243" stop-color="#28C2D1"/>
<stop offset="0.925347" stop-color="#4931DE"/>
</linearGradient>
<linearGradient id="paint6_linear" x1="10.9534" y1="29.6275" x2="12.3573" y2="36.0582" gradientUnits="userSpaceOnUse">
<stop offset="0.10243" stop-color="#28C2D1"/>
<stop offset="0.925347" stop-color="#4931DE"/>
</linearGradient>
</defs>
</svg>

<svg width="41" height="40" fill="none" xmlns="http://www.w3.org/2000/svg">
    <path
        d="M29.495 20.032a8.884 8.884 0 00-2.407-6.098 9.16 9.16 0 00-5.977-2.863 9.204 9.204 0 00-6.36 1.899 8.935 8.935 0 00-3.355 5.648c.935-.074 1.87-.05 2.798.064 2.745.34 5.29 1.45 7.658 2.808 1.442.83 3.267 1.066 5.185.806a12.32 12.32 0 002.291-.546c.11-.556.167-1.132.167-1.72v.002z"
        fill="url(#prefix__prefix__paint0_linear)" />
    <path
        d="M10.313 8.764l-.14-.116a1.028 1.028 0 00-1.36.18.99.99 0 00.064 1.35l1.743 1.716.142.116a1.028 1.028 0 001.36-.18.99.99 0 00-.063-1.35l-1.746-1.716z"
        fill="url(#prefix__prefix__paint1_linear)" />
    <path
        d="M31.978 10.04a.988.988 0 00-.184-1.338 1.026 1.026 0 00-1.37.062l-1.746 1.716-.117.14a.988.988 0 00.188 1.333 1.026 1.026 0 001.366-.059l1.745-1.716.118-.14v.002z"
        fill="url(#prefix__prefix__paint2_linear)" />
    <path
        d="M21.374 4.87a.998.998 0 00-.384-.618 1.028 1.028 0 00-1.366.122.992.992 0 00-.265.676v2.426l.016.18a.998.998 0 00.384.618 1.028 1.028 0 001.366-.122.99.99 0 00.265-.676V5.048l-.016-.18v.002z"
        fill="url(#prefix__prefix__paint3_linear)" />
    <path
        d="M7.599 23.878c2.145-1.152 4.136-1.468 6.089-1.228 1.979.246 3.982 1.07 6.115 2.296 2.445 1.402 5.25 1.658 7.79 1.312 2.536-.346 4.897-1.302 6.522-2.444a.988.988 0 00.236-1.396 1.029 1.029 0 00-1.418-.232c-1.337.94-3.385 1.786-5.618 2.09-2.229.304-4.543.06-6.488-1.058-2.25-1.292-4.524-2.26-6.887-2.552-2.387-.294-4.805.108-7.314 1.456a1.013 1.013 0 00-.489.596.986.986 0 00.083.76 1.013 1.013 0 001 .516c.133-.014.262-.053.379-.116z"
        fill="url(#prefix__prefix__paint4_linear)" />
    <path
        d="M13.688 26.65c-1.953-.24-3.944.076-6.09 1.228a1.028 1.028 0 01-1.379-.398.99.99 0 01.405-1.358c2.51-1.348 4.929-1.75 7.318-1.456 2.36.292 4.634 1.26 6.888 2.552 1.942 1.116 4.256 1.362 6.485 1.06 2.23-.306 4.28-1.15 5.618-2.092a1.029 1.029 0 011.418.232.988.988 0 01-.236 1.396c-1.625 1.14-3.988 2.098-6.522 2.444-2.54.346-5.345.09-7.79-1.312-2.133-1.226-4.136-2.05-6.115-2.296z"
        fill="url(#prefix__prefix__paint5_linear)" />
    <path
        d="M7.599 31.878c2.145-1.152 4.136-1.468 6.089-1.228 1.979.246 3.982 1.07 6.115 2.296 2.445 1.402 5.25 1.658 7.79 1.312 2.536-.346 4.897-1.302 6.522-2.444a.988.988 0 00.236-1.396 1.029 1.029 0 00-1.418-.232c-1.337.94-3.385 1.786-5.618 2.09-2.229.304-4.543.06-6.488-1.058-2.25-1.292-4.524-2.26-6.887-2.552-2.387-.294-4.805.108-7.314 1.456a1.003 1.003 0 00-.489.596.986.986 0 00.083.761 1.03 1.03 0 001.379.399z"
        fill="url(#prefix__prefix__paint6_linear)" />
    <defs>
        <linearGradient id="prefix__prefix__paint0_linear" x1="14.487" y1="13.095" x2="20.56" y2="22.171"
            gradientUnits="userSpaceOnUse">
            <stop offset=".102" stop-color="#28C2D1" />
            <stop offset=".925" stop-color="#4931DE" />
        </linearGradient>
        <linearGradient id="prefix__prefix__paint1_linear" x1="9.223" y1="9.142" x2="11.373" y2="11.19"
            gradientUnits="userSpaceOnUse">
            <stop offset=".102" stop-color="#28C2D1" />
            <stop offset=".925" stop-color="#4931DE" />
        </linearGradient>
        <linearGradient id="prefix__prefix__paint2_linear" x1="29.028" y1="9.141" x2="31.175" y2="11.187"
            gradientUnits="userSpaceOnUse">
            <stop offset=".102" stop-color="#28C2D1" />
            <stop offset=".925" stop-color="#4931DE" />
        </linearGradient>
        <linearGradient id="prefix__prefix__paint3_linear" x1="19.706" y1="4.849" x2="21.566" y2="5.649"
            gradientUnits="userSpaceOnUse">
            <stop offset=".102" stop-color="#28C2D1" />
            <stop offset=".925" stop-color="#4931DE" />
        </linearGradient>
        <linearGradient id="prefix__prefix__paint4_linear" x1="10.953" y1="21.627" x2="12.357" y2="28.058"
            gradientUnits="userSpaceOnUse">
            <stop offset=".102" stop-color="#28C2D1" />
            <stop offset=".925" stop-color="#4931DE" />
        </linearGradient>
        <linearGradient id="prefix__prefix__paint5_linear" x1="10.952" y1="25.627" x2="12.356" y2="32.058"
            gradientUnits="userSpaceOnUse">
            <stop offset=".102" stop-color="#28C2D1" />
            <stop offset=".925" stop-color="#4931DE" />
        </linearGradient>
        <linearGradient id="prefix__prefix__paint6_linear" x1="10.953" y1="29.628" x2="12.357" y2="36.058"
            gradientUnits="userSpaceOnUse">
            <stop offset=".102" stop-color="#28C2D1" />
            <stop offset=".925" stop-color="#4931DE" />
        </linearGradient>
    </defs>
</svg>
